svgs/sharp-light/blueberries.svg

<svg xmlns="http://www.w3.org/2000/svg" viewBox="0 0 512 512"><!--! Font Awesome Pro 6.6.0 by @fontawesome - https://fontawesome.com License - https://fontawesome.com/license (Commercial License) Copyright 2024 Fonticons, Inc. --><path d="M382.7 312.3C439.3 292.9 480 239.2 480 176c0-79.5-64.5-144-144-144c-63.2 0-116.9 40.7-136.3 97.3c-7.8-.9-15.7-1.3-23.7-1.3c-3.2 0-6.3 .1-9.4 .2C187.4 54.2 255.4 0 336 0c97.2 0 176 78.8 176 176c0 80.6-54.2 148.6-128.2 169.4c.1-3.1 .2-6.3 .2-9.4c0-8-.5-15.9-1.3-23.7zM320 336A144 144 0 1 0 32 336a144 144 0 1 0 288 0zM0 336a176 176 0 1 1 352 0A176 176 0 1 1 0 336zm176-96l0 32 32 0 16 0 0 32-16 0-32 0 0 32 0 16-32 0 0-16 0-32-32 0-16 0 0-32 16 0 32 0 0-32 0-16 32 0 0 16zM368 80l0 32 32 0 16 0 0 32-16 0-32 0 0 32 0 16-32 0 0-16 0-32-32 0-16 0 0-32 16 0 32 0 0-32 0-16 32 0 0 16z"/></svg>

<svg xmlns="http://www.w3.org/2000/svg" viewBox="0 0 512 512"><!--! Font Awesome Pro 6.4.0 by @fontawesome - https://fontawesome.com License - https://fontawesome.com/license (Commercial License) Copyright 2023 Fonticons, Inc. --><path d="M382.7 312.3C439.3 292.9 480 239.2 480 176c0-79.5-64.5-144-144-144c-63.2 0-116.9 40.7-136.3 97.3c-7.8-.9-15.7-1.3-23.7-1.3c-3.2 0-6.3 .1-9.4 .2C187.4 54.2 255.4 0 336 0c97.2 0 176 78.8 176 176c0 80.6-54.2 148.6-128.2 169.4c.1-3.1 .2-6.3 .2-9.4c0-8-.5-15.9-1.3-23.7zM320 336A144 144 0 1 0 32 336a144 144 0 1 0 288 0zM0 336a176 176 0 1 1 352 0A176 176 0 1 1 0 336zm176-96v32h32 16v32H208 176v32 16H144V336 304H112 96V272h16 32V240 224h32v16zM368 80v32h32 16v32H400 368v32 16H336V176 144H304 288V112h16 32V80 64h32V80z"/></svg>
